X: 3286
T: BRIAN BOROUGME
%R: jig
B: James Kerr "Merry Melodies" v.3 p.31 #286
Z: 2016 John Chambers <jc:trillian.mit.edu>
M: 6/8
L: 1/8
K: Am
e |\
cBA Aed | cBA A2c | BAG Gdc | BAG G2e |\
cBA Aed | cBA A2B | cde e2d | cAA A2 :|
|: B |\
cde efe | efe edc | Bcd ded | ded dcB |\
cde efe | efe edc | e3  e2d | cAA A2 :|

%%sep 1 1 500
%%sep 1 1 500

